X:1
T:Savior and Regenerator
T:Savior and Regenerator
T:Frank Sewall (1837-1915)
T:Public Domain Courtesy of the Cyber Hymnal™
C:Frank Sewall (1837-1915)
Z:Public Domain
Z:Courtesy of the Cyber Hymnal™
%%score ( 1 2 ) ( 3 4 )
L:1/8
Q:1/4=140
M:6/4
K:Eb
V:1 treble 
V:2 treble 
V:3 bass 
V:4 bass 
V:1
 G4 c2 | B4 G2 F4 E2 | [DF]6 !fermata![EG]6 | [EB]4 [Ee]2 !fermata![Gd]6 | %4
 E4 [Ec]2 !fermata![EB]6 | [EG]4 [EG]2 [EG]2 [DF]2 E2 | [DF]6 E6 |] %7
V:2
 G4 c2 | B4 G2 F4 E2 | x12 | x12 | E4 x8 | x10 E2 | x6 E6 |] %7
V:3
 G,4 C2 | B,4 G,2 F,4 E,2 | [B,,B,]6 !fermata![E,B,]6 | [E,G,]4 [C,C]2 !fermata![G,=B,]6 | %4
 [A,C]4 [C,A,]2 !fermata![E,G,]6 | [E,B,]4 [E,B,]2 B,2 A,2 [E,G,]2 | [B,,A,]6 [E,G,]6 |] %7
V:4
 G,4 C2 | B,4 G,2 F,4 E,2 | x12 | x12 | x12 | x6 E,4 x2 | x12 |] %7

